packages/icons/general/Verified.svg

<svg width="25" height="24" viewBox="0 0 25 24" xmlns="http://www.w3.org/2000/svg">
<g clip-path="url(#clip0_265_21627)">
            <path
                d="M23.2726 8.86855V5.7763L20.5884 4.22628L19.046 1.54985H15.9537L13.2699 0L10.5934 1.54985H7.50113L5.95111 4.22628L3.26714 5.77622V8.86847L1.72482 11.545L3.27467 14.2215V17.3137L5.95873 18.856L7.50867 21.5399H10.6009L13.2774 23.0824L15.9613 21.5399H19.046L20.5884 18.856L23.2726 17.3137V14.2215L24.8148 11.545L23.2726 8.86855Z"
                fill="#39CF92"
            />
            <path
                fill-rule="evenodd"
                clip-rule="evenodd"
                d="M18.4225 8.77609C18.7154 9.069 18.7154 9.54388 18.4225 9.83675L11.5559 16.7026C11.263 16.9955 10.7881 16.9955 10.4952 16.7026L7.28605 13.4935C6.99315 13.2006 6.99315 12.7257 7.28604 12.4328C7.57893 12.1399 8.05381 12.1399 8.3467 12.4328L11.0256 15.1117L17.3619 8.77604C17.6548 8.48316 18.1296 8.48319 18.4225 8.77609Z"
                fill="white"
            />
        </g>
        <defs>
            <clipPath id="clip0_265_21627">
                <rect width="24" height="24" fill="white" transform="translate(0.724823)" />
            </clipPath>
        </defs>
</svg>

<svg xmlns="http://www.w3.org/2000/svg" viewBox="0 0 25 24">
    <g clip-path="url(#Verified_svg__a)">
        <path fill="#39CF92" d="M23.273 8.869V5.776l-2.685-1.55-1.542-2.676h-3.092L13.27 0l-2.677 1.55H7.501l-1.55 2.676-2.684 1.55v3.092l-1.542 2.677 1.55 2.677v3.092l2.684 1.542 1.55 2.684H10.6l2.676 1.542 2.684-1.542h3.085l1.542-2.684 2.685-1.542v-3.092l1.542-2.677-1.542-2.676Z"/>
        <path fill="#fff" fill-rule="evenodd" d="M18.422 8.776a.75.75 0 0 1 0 1.06l-6.866 6.867a.75.75 0 0 1-1.06 0l-3.21-3.21a.75.75 0 0 1 1.06-1.06l2.68 2.679 6.336-6.336a.75.75 0 0 1 1.06 0Z" clip-rule="evenodd"/>
    </g>
    <defs>
        <clipPath id="Verified_svg__a">
            <path fill="#fff" d="M0 0h24v24H0z" transform="translate(.725)"/>
        </clipPath>
    </defs>
</svg>
